svgs/regular/walkie-talkie.svg

<svg xmlns="http://www.w3.org/2000/svg" viewBox="0 0 384 512"><!--! Font Awesome Pro 6.6.0 by @fontawesome - https://fontawesome.com License - https://fontawesome.com/license (Commercial License) Copyright 2024 Fonticons, Inc. --><path d="M112 24c0-13.3-10.7-24-24-24S64 10.7 64 24l0 72-8 0C25.1 96 0 121.1 0 152L0 305.4c0 10.6 4.2 20.8 11.7 28.3L32 353.9 32 456c0 30.9 25.1 56 56 56l208 0c30.9 0 56-25.1 56-56l0-102.1 20.3-20.3c7.5-7.5 11.7-17.7 11.7-28.3L384 152c0-30.9-25.1-56-56-56l-8 0c0-17.7-14.3-32-32-32s-32 14.3-32 32l-32 0c0-17.7-14.3-32-32-32s-32 14.3-32 32l-48 0 0-72zm80 120l96 0 40 0c4.4 0 8 3.6 8 8l0 150.1-20.3 20.3c-7.5 7.5-11.7 17.7-11.7 28.3L304 456c0 4.4-3.6 8-8 8L88 464c-4.4 0-8-3.6-8-8l0-105.4c0-10.6-4.2-20.8-11.7-28.3L48 302.1 48 152c0-4.4 3.6-8 8-8l32 0 104 0zm-56 48c-13.3 0-24 10.7-24 24s10.7 24 24 24l112 0c13.3 0 24-10.7 24-24s-10.7-24-24-24l-112 0zm0 80c-13.3 0-24 10.7-24 24s10.7 24 24 24l112 0c13.3 0 24-10.7 24-24s-10.7-24-24-24l-112 0z"/></svg>

<svg xmlns="http://www.w3.org/2000/svg" viewBox="0 0 384 512"><!--! Font Awesome Pro 6.4.0 by @fontawesome - https://fontawesome.com License - https://fontawesome.com/license (Commercial License) Copyright 2023 Fonticons, Inc. --><path d="M112 24c0-13.3-10.7-24-24-24S64 10.7 64 24V96H56C25.1 96 0 121.1 0 152V305.4c0 10.6 4.2 20.8 11.7 28.3L32 353.9V456c0 30.9 25.1 56 56 56H296c30.9 0 56-25.1 56-56V353.9l20.3-20.3c7.5-7.5 11.7-17.7 11.7-28.3V152c0-30.9-25.1-56-56-56h-8c0-17.7-14.3-32-32-32s-32 14.3-32 32H224c0-17.7-14.3-32-32-32s-32 14.3-32 32H112V24zm80 120h96 40c4.4 0 8 3.6 8 8V302.1l-20.3 20.3c-7.5 7.5-11.7 17.7-11.7 28.3V456c0 4.4-3.6 8-8 8H88c-4.4 0-8-3.6-8-8V350.6c0-10.6-4.2-20.8-11.7-28.3L48 302.1V152c0-4.4 3.6-8 8-8H88 192zm-56 48c-13.3 0-24 10.7-24 24s10.7 24 24 24H248c13.3 0 24-10.7 24-24s-10.7-24-24-24H136zm0 80c-13.3 0-24 10.7-24 24s10.7 24 24 24H248c13.3 0 24-10.7 24-24s-10.7-24-24-24H136z"/></svg>
